svg/arrows_long_right.svg

<svg xmlns="http://www.w3.org/2000/svg" viewBox="0 0 32 32" enable-background="new 0 0 32 32"><path d="M 21.1875 9.28125 L 19.78125 10.71875 L 24.0625 15 L 4 15 L 4 17 L 24.0625 17 L 19.78125 21.28125 L 21.1875 22.71875 L 27.1875 16.71875 L 27.90625 16 L 27.1875 15.28125 L 21.1875 9.28125 z" color="#000" overflow="visible" enable-background="accumulate"/></svg>

<svg xmlns="http://www.w3.org/2000/svg" viewBox="0 0 32 32"><path d="M21.188 9.28l-1.407 1.44L24.063 15H4v2h20.063l-4.282 4.28 1.407 1.44 6-6 .72-.72-.72-.72-6-6z"/></svg>
